material/.icons/material/table-of-contents.svg

<svg xmlns="http://www.w3.org/2000/svg" viewBox="0 0 24 24"><path d="M3 9h14V7H3v2m0 4h14v-2H3v2m0 4h14v-2H3v2m16 0h2v-2h-2v2m0-10v2h2V7h-2m0 6h2v-2h-2v2z"/></svg>

<?xml version="1.0" encoding="UTF-8"?><!DOCTYPE svg PUBLIC "-//W3C//DTD SVG 1.1//EN" "http://www.w3.org/Graphics/SVG/1.1/DTD/svg11.dtd"><svg xmlns="http://www.w3.org/2000/svg" xmlns:xlink="http://www.w3.org/1999/xlink" version="1.1" id="mdi-table-of-contents" width="24" height="24" viewBox="0 0 24 24"><path d="M3,9H17V7H3V9M3,13H17V11H3V13M3,17H17V15H3V17M19,17H21V15H19V17M19,7V9H21V7H19M19,13H21V11H19V13Z" /></svg>
